Papirus-Light/22x22/panel/krudiotray-light-on22.svg

<svg xmlns="http://www.w3.org/2000/svg" width="22" height="22" version="1.1">
 <defs>
  <style id="current-color-scheme" type="text/css">
   .ColorScheme-Text { color:#444444; } .ColorScheme-Highlight { color:#4285f4; }
  </style>
 </defs>
 <path style="fill:currentColor" class="ColorScheme-Text" d="M 3.1426,4 C 2.5094,4 2,4.5344 2,5.1992 l 0,11.602 c 0,0.665 0.5094,1.199 1.1426,1.199 l 15.714,0 c 0.634,0 1.143,-0.534 1.143,-1.199 l 0,-11.602 c 0,-0.6646 -0.509,-1.199 -1.143,-1.199 l -15.714,0 z M 8,7 c 2.209,0 4,1.7909 4,4 0,2.209 -1.791,4 -4,4 C 5.7909,15 4,13.209 4,11 4,8.7909 5.7909,7 8,7 Z m 5,0 5,0 0,1 -5,0 0,-1 z m 0,3 5,0 0,1 -5,0 0,-1 z m 0,3 5,0 0,1 -5,0 0,-1 z"/>
 <path style="fill:currentColor" class="ColorScheme-Highlight" d="m 8.1,8 c -1.6569,0 -3,1.3432 -3,3 0,1.6568 1.3431,3 3,3 1.6568,0 3,-1.3432 3,-3 0,-1.6568 -1.3432,-3 -3,-3 z"/>
</svg>

<svg xmlns="http://www.w3.org/2000/svg" width="22" height="22" version="1.1">
 <defs>
  <style id="current-color-scheme" type="text/css">
   .ColorScheme-Text { color:#444444; } .ColorScheme-Highlight { color:#4285f4; }
  </style>
 </defs>
 <path style="fill:currentColor" class="ColorScheme-Text" d="M 3.1426,3.9998 C 2.5094,3.9998 2,4.5342 2,5.199 V 16.801 C 2,17.466 2.5094,18 3.1426,18 h 15.714 c 0.634,0 1.143,-0.534 1.143,-1.199 V 5.199 C 19.9996,4.5344 19.4906,4 18.8566,4 H 3.1426 Z m 4.8574,3 c 2.2091,0 4,1.7909 4,4 0,2.2091 -1.7909,4 -4,4 -2.2091,0 -4,-1.791 -4,-4 0,-2.2091 1.7909,-4 4,-4 z m 5,0 h 6 v 1 h -6 z m 0,3 h 6 v 1 h -6 z m 0,3 h 6 v 1 h -6 z"/>
 <circle style="fill:currentColor" class="ColorScheme-Highlight" cx="8" cy="11" r="2"/>
</svg>
